storage/app/icons/phosphoricons/fill/dress-fill.svg

<svg xmlns="http://www.w3.org/2000/svg" fill="currentColor" viewBox="0 0 256 256"><path d="M66.26 80.23a15.26 15.26 0 0 1-1.65-12.17 15.5 15.5 0 0 1 2-4.76L88 32.7V8a8 8 0 0 1 8.53-8A8.17 8.17 0 0 1 104 8.27v24.15l5.25 6.58a23.91 23.91 0 0 0 19.13 9 24.67 24.67 0 0 0 18.71-9.43l4.91-6.15V8a8 8 0 0 1 8.53-8A8.17 8.17 0 0 1 168 8.27V32.7l21.42 30.6a15.5 15.5 0 0 1 2 4.76 15.26 15.26 0 0 1-1.65 12.17 2 2 0 0 0-.11.18l-13.86 21.74a4 4 0 0 1-3.4 1.85H83.6a4 4 0 0 1-3.37-1.85L66.37 80.41a2 2 0 0 0-.11-.18m148.5 129.56a2.5 2.5 0 0 0-.15-.34l-40.92-87.15a4 4 0 0 0-3.63-2.3H85.94a4 4 0 0 0-3.63 2.3l-40.92 87.15a2.5 2.5 0 0 0-.15.34A16.2 16.2 0 0 0 41.6 223a16 16 0 0 0 14.4 9h144a16 16 0 0 0 14.39-9 16.2 16.2 0 0 0 .37-13.21"/></svg>

<svg xmlns="http://www.w3.org/2000/svg" viewBox="0 0 256 256" fill="currentColor"><path d="M66.26,80.23a15.26,15.26,0,0,1-1.65-12.17,15.54,15.54,0,0,1,2-4.76L88,32.7V8a8,8,0,0,1,8.53-8A8.17,8.17,0,0,1,104,8.27V32.42L109.25,39a23.91,23.91,0,0,0,19.13,9,24.67,24.67,0,0,0,18.71-9.43L152,32.42V8a8,8,0,0,1,8.53-8A8.17,8.17,0,0,1,168,8.27V32.7l21.42,30.6a15.54,15.54,0,0,1,2,4.76,15.26,15.26,0,0,1-1.65,12.17,1.74,1.74,0,0,0-.11.18l-13.86,21.74A4,4,0,0,1,172.4,104H83.6a4,4,0,0,1-3.37-1.85L66.37,80.41A1.74,1.74,0,0,0,66.26,80.23Zm148.5,129.56a2.52,2.52,0,0,0-.15-.34L173.69,122.3a4,4,0,0,0-3.63-2.3H85.94a4,4,0,0,0-3.63,2.3L41.39,209.45a2.52,2.52,0,0,0-.15.34A16.19,16.19,0,0,0,41.6,223,16,16,0,0,0,56,232H200a16,16,0,0,0,14.39-9A16.19,16.19,0,0,0,214.76,209.79Z"/></svg>
